dist/img/vk.svg

<svg width="24" height="24" viewBox="0 0 24 24" fill="none" xmlns="http://www.w3.org/2000/svg">
<path d="M11.1999 1.70001H13.1999V0.700012H11.1999V1.70001ZM22.6999 11.2V13.2H23.6999V11.2H22.6999ZM13.1999 22.7H11.1999V23.7H13.1999V22.7ZM1.69995 13.2V11.2H0.699951V13.2H1.69995ZM11.1999 22.7C8.82879 22.7 7.10072 22.6989 5.78021 22.5214C4.47409 22.3458 3.64182 22.0058 3.01797 21.382L2.31086 22.0891C3.15148 22.9297 4.22995 23.322 5.64697 23.5125C7.0496 23.7011 8.85706 23.7 11.1999 23.7V22.7ZM0.699951 13.2C0.699951 15.5429 0.698889 17.3504 0.887468 18.753C1.07798 20.17 1.47025 21.2485 2.31086 22.0891L3.01797 21.382C2.39412 20.7581 2.05415 19.9259 1.87855 18.6197C1.70101 17.2992 1.69995 15.5712 1.69995 13.2H0.699951ZM22.6999 13.2C22.6999 15.5712 22.6989 17.2992 22.5213 18.6197C22.3457 19.9259 22.0058 20.7581 21.3819 21.382L22.089 22.0891C22.9297 21.2485 23.3219 20.17 23.5124 18.753C23.701 17.3504 23.6999 15.5429 23.6999 13.2H22.6999ZM13.1999 23.7C15.5428 23.7 17.3503 23.7011 18.7529 23.5125C20.1699 23.322 21.2484 22.9297 22.089 22.0891L21.3819 21.382C20.7581 22.0058 19.9258 22.3458 18.6197 22.5214C17.2992 22.6989 15.5711 22.7 13.1999 22.7V23.7ZM13.1999 1.70001C15.5711 1.70001 17.2992 1.70107 18.6197 1.87861C19.9258 2.05422 20.7581 2.39418 21.3819 3.01803L22.089 2.31092C21.2484 1.47031 20.1699 1.07804 18.7529 0.887529C17.3503 0.69895 15.5428 0.700012 13.1999 0.700012V1.70001ZM23.6999 11.2C23.6999 8.85712 23.701 7.04966 23.5124 5.64703C23.3219 4.23001 22.9297 3.15154 22.089 2.31092L21.3819 3.01803C22.0058 3.64188 22.3457 4.47415 22.5213 5.78028C22.6989 7.10078 22.6999 8.82885 22.6999 11.2H23.6999ZM11.1999 0.700012C8.85706 0.700012 7.0496 0.69895 5.64697 0.887529C4.22995 1.07804 3.15148 1.47031 2.31086 2.31092L3.01797 3.01803C3.64182 2.39418 4.47409 2.05422 5.78021 1.87861C7.10072 1.70107 8.82879 1.70001 11.1999 1.70001V0.700012ZM1.69995 11.2C1.69995 8.82885 1.70101 7.10078 1.87855 5.78028C2.05415 4.47415 2.39412 3.64188 3.01797 3.01803L2.31086 2.31092C1.47025 3.15154 1.07798 4.23001 0.887468 5.64703C0.698889 7.04966 0.699951 8.85712 0.699951 11.2H1.69995Z" fill="white"/>
<path d="M12.9199 17.19C7.4499 17.19 4.32995 13.44 4.19995 7.20001H6.93995C7.02995 11.78 9.0499 13.72 10.6499 14.12V7.20001H13.23V11.15C14.81 10.98 16.4698 9.18001 17.0298 7.20001H19.6099C19.1799 9.64001 17.3799 11.44 16.0999 12.18C17.3799 12.78 19.43 14.35 20.21 17.19H17.3699C16.7599 15.29 15.24 13.82 13.23 13.62V17.19H12.9199Z" fill="white"/>
</svg>

<svg width="24" height="24" fill="none" xmlns="http://www.w3.org/2000/svg"><path d="M11.2 1.7h2v-1h-2v1Zm11.5 9.5v2h1v-2h-1Zm-9.5 11.5h-2v1h2v-1ZM1.7 13.2v-2h-1v2h1Zm9.5 9.5c-2.371 0-4.1-.001-5.42-.179-1.306-.175-2.138-.515-2.762-1.139l-.707.707c.84.84 1.919 1.233 3.336 1.424 1.403.188 3.21.187 5.553.187v-1ZM.7 13.2c0 2.343-.001 4.15.187 5.553.191 1.417.583 2.495 1.424 3.336l.707-.707c-.624-.624-.964-1.456-1.14-2.762-.176-1.32-.178-3.05-.178-5.42h-1Zm22 0c0 2.371-.001 4.1-.179 5.42-.175 1.306-.515 2.138-1.14 2.762l.708.707c.84-.84 1.233-1.919 1.423-3.336.189-1.403.188-3.21.188-5.553h-1Zm-9.5 10.5c2.343 0 4.15.001 5.553-.188 1.417-.19 2.495-.582 3.336-1.423l-.707-.707c-.624.624-1.456.964-2.762 1.14-1.32.177-3.049.178-5.42.178v1Zm0-22c2.371 0 4.1.001 5.42.179 1.306.175 2.138.515 2.762 1.139l.707-.707c-.84-.84-1.92-1.233-3.336-1.423C17.35.698 15.543.7 13.2.7v1Zm10.5 9.5c0-2.343.001-4.15-.188-5.553-.19-1.417-.582-2.495-1.423-3.336l-.707.707c.624.624.964 1.456 1.14 2.762.177 1.32.178 3.049.178 5.42h1ZM11.2.7C8.857.7 7.05.699 5.647.888c-1.417.19-2.496.582-3.336 1.423l.707.707c.624-.624 1.456-.964 2.762-1.14C7.1 1.702 8.83 1.7 11.2 1.7v-1ZM1.7 11.2c0-2.371.001-4.1.179-5.42.175-1.306.515-2.138 1.139-2.762l-.707-.707C1.47 3.15 1.078 4.23.887 5.647.7 7.05.7 8.857.7 11.2h1Zm11.22 5.99c-5.47 0-8.59-3.75-8.72-9.99h2.74c.09 4.58 2.11 6.52 3.71 6.92V7.2h2.58v3.95c1.58-.17 3.24-1.97 3.8-3.95h2.58c-.43 2.44-2.23 4.24-3.51 4.98 1.28.6 3.33 2.17 4.11 5.01h-2.84c-.61-1.9-2.13-3.37-4.14-3.57v3.57h-.31Z" fill="#fff"/></svg>
